sequoia/src/pages/Main/Utility/assets/owners.svg

<svg width="112" height="120" viewBox="0 0 112 120" fill="none" xmlns="http://www.w3.org/2000/svg">
<g filter="url(#filter0_dii_370_25065)">
<path d="M52.6266 11.8554C54.7272 10.7001 57.2729 10.7001 59.3734 11.8554L92.3734 30.0054C94.6103 31.2356 96 33.5861 96 36.1389V71.8611C96 74.4139 94.6103 76.7644 92.3734 77.9946L59.3734 96.1446C57.2729 97.2999 54.7271 97.2999 52.6266 96.1446L19.6266 77.9946C17.3897 76.7644 16 74.4139 16 71.8611V36.1389C16 33.5861 17.3897 31.2356 19.6266 30.0054L52.6266 11.8554Z" fill="url(#paint0_radial_370_25065)" fill-opacity="0.179" shape-rendering="crispEdges"/>
</g>
<path d="M71.231 52.0181C72.383 50.1614 71.3901 47.7685 69.2188 47.1435V44C69.2188 41.243 66.8531 39 63.9453 39H59.2212C58.6776 37.8239 57.4387 37 56 37C54.5613 37 53.3224 37.8239 52.7788 39H48.0898C45.1821 39 42.8164 41.243 42.8164 44V47.1535C40.679 47.7921 39.7009 50.1499 40.8257 51.9955C39.1687 52.6469 38 54.1962 38 56V59C38 59.5523 38.4722 60 39.0547 60H42.8164V63C42.8164 65.757 45.1821 68 48.0898 68H50.1992V70C50.1992 70.5523 50.6714 71 51.2539 71H60.7461C61.3286 71 61.8008 70.5523 61.8008 70V68H63.9453C66.8531 68 69.2188 65.757 69.2188 63V60H72.9453C73.5278 60 74 59.5523 74 59V56C74 54.2168 72.8578 52.6822 71.231 52.0181V52.0181ZM68.1992 51.6667C67.4238 51.6667 66.793 51.0685 66.793 50.3333C66.793 49.5981 67.4238 49 68.1992 49C68.9746 49 69.6055 49.5981 69.6055 50.3333C69.6055 51.0685 68.9746 51.6667 68.1992 51.6667ZM54.7695 43.6667H57.2305C58.5874 43.6667 59.6914 44.7134 59.6914 46V48H52.3086V46C52.3086 44.7134 53.4126 43.6667 54.7695 43.6667ZM56 39C56.7754 39 57.4062 39.5981 57.4062 40.3333C57.4062 41.0685 56.7754 41.6667 56 41.6667C55.2246 41.6667 54.5938 41.0685 54.5938 40.3333C54.5938 39.5981 55.2246 39 56 39ZM43.8711 49C44.6465 49 45.2773 49.5981 45.2773 50.3333C45.2773 51.0685 44.6465 51.6667 43.8711 51.6667C43.0957 51.6667 42.4648 51.0685 42.4648 50.3333C42.4648 49.5981 43.0957 49 43.8711 49ZM40.1094 56C40.1094 54.7134 41.2134 53.6667 42.5703 53.6667H45.1016C46.4585 53.6667 47.5625 54.7134 47.5625 56V58H40.1094V56ZM59.6914 69H52.3086V67C52.3086 65.7134 53.4126 64.6667 54.7695 64.6667H57.2305C58.5874 64.6667 59.6914 65.7134 59.6914 67V69ZM56 62.6667C55.2246 62.6667 54.5938 62.0685 54.5938 61.3333C54.5938 60.5981 55.2246 60 56 60C56.7754 60 57.4062 60.5981 57.4062 61.3333C57.4062 62.0685 56.7754 62.6667 56 62.6667ZM67.1094 63C67.1094 64.6542 65.69 66 63.9453 66H61.6766C61.3406 64.6571 60.3446 63.554 59.0317 63.0181C59.3387 62.5233 59.5156 61.9477 59.5156 61.3333C59.5156 59.4953 57.9385 58 56 58C54.0615 58 52.4844 59.4953 52.4844 61.3333C52.4844 61.9477 52.6613 62.5233 52.9683 63.0181C51.6554 63.554 50.6594 64.6571 50.3234 66H48.0898C46.3452 66 44.9258 64.6542 44.9258 63V60H48.6172C49.1997 60 49.6719 59.5523 49.6719 59V56C49.6719 54.2168 48.5297 52.6822 46.9028 52.0181C48.0439 50.1793 47.0818 47.7977 44.9258 47.1535V44C44.9258 42.3458 46.3452 41 48.0898 41H52.5551C52.6334 41.3645 52.7753 41.7071 52.9683 42.0181C51.3414 42.6822 50.1992 44.2168 50.1992 46V49C50.1992 49.5523 50.6714 50 51.2539 50H60.7461C61.3286 50 61.8008 49.5523 61.8008 49V46C61.8008 44.2168 60.6586 42.6822 59.0317 42.0181C59.2247 41.7071 59.3666 41.3645 59.4449 41H63.9453C65.69 41 67.1094 42.3458 67.1094 44V47.1647C64.988 47.8223 64.0396 50.1673 65.1538 51.9955C63.4969 52.6469 62.3281 54.1962 62.3281 56V59C62.3281 59.5523 62.8003 60 63.3828 60H67.1094V63ZM71.8906 58H64.4375V56C64.4375 54.7134 65.5415 53.6667 66.8984 53.6667H69.4297C70.7866 53.6667 71.8906 54.7134 71.8906 56V58Z" fill="white"/>
<defs>
<filter id="filter0_dii_370_25065" x="0" y="0.98877" width="112" height="118.022" filterUnits="userSpaceOnUse" color-interpolation-filters="sRGB">
<feFlood flood-opacity="0" result="BackgroundImageFix"/>
<feColorMatrix in="SourceAlpha" type="matrix" values="0 0 0 0 0 0 0 0 0 0 0 0 0 0 0 0 0 0 127 0" result="hardAlpha"/>
<feOffset dy="6"/>
<feGaussianBlur stdDeviation="8"/>
<feComposite in2="hardAlpha" operator="out"/>
<feColorMatrix type="matrix" values="0 0 0 0 0 0 0 0 0 0 0 0 0 0 0 0 0 0 0.25 0"/>
<feBlend mode="normal" in2="BackgroundImageFix" result="effect1_dropShadow_370_25065"/>
<feBlend mode="normal" in="SourceGraphic" in2="effect1_dropShadow_370_25065" result="shape"/>
<feColorMatrix in="SourceAlpha" type="matrix" values="0 0 0 0 0 0 0 0 0 0 0 0 0 0 0 0 0 0 127 0" result="hardAlpha"/>
<feOffset dx="-1.12" dy="1.12"/>
<feGaussianBlur stdDeviation="0.56"/>
<feComposite in2="hardAlpha" operator="arithmetic" k2="-1" k3="1"/>
<feColorMatrix type="matrix" values="0 0 0 0 1 0 0 0 0 1 0 0 0 0 1 0 0 0 0.558 0"/>
<feBlend mode="normal" in2="shape" result="effect2_innerShadow_370_25065"/>
<feColorMatrix in="SourceAlpha" type="matrix" values="0 0 0 0 0 0 0 0 0 0 0 0 0 0 0 0 0 0 127 0" result="hardAlpha"/>
<feOffset dx="1.12" dy="-1.12"/>
<feGaussianBlur stdDeviation="0.56"/>
<feComposite in2="hardAlpha" operator="arithmetic" k2="-1" k3="1"/>
<feColorMatrix type="matrix" values="0 0 0 0 0.84 0 0 0 0 0.84 0 0 0 0 0.84 0 0 0 0.558 0"/>
<feBlend mode="normal" in2="effect2_innerShadow_370_25065" result="effect3_innerShadow_370_25065"/>
</filter>
<radialGradient id="paint0_radial_370_25065" cx="0" cy="0" r="1" gradientUnits="userSpaceOnUse" gradientTransform="translate(56 54) rotate(90) scale(44 40)">
<stop stop-color="white"/>
<stop offset="1" stop-color="white" stop-opacity="0.21"/>
</radialGradient>
</defs>
</svg>

<svg width="112" height="120" fill="none" xmlns="http://www.w3.org/2000/svg"><g filter="url(#a)"><path d="M52.63 11.86a7 7 0 0 1 6.74 0l33 18.15A7 7 0 0 1 96 36.14v35.72A7 7 0 0 1 92.37 78l-33 18.15a7 7 0 0 1-6.74 0L19.63 78A7 7 0 0 1 16 71.86V36.14A7 7 0 0 1 19.63 30l33-18.15Z" fill="url(#b)" fill-opacity=".18" shape-rendering="crispEdges"/></g><path d="M71.23 52.02c1.15-1.86.16-4.25-2.01-4.88V44c0-2.76-2.37-5-5.27-5h-4.73A3.53 3.53 0 0 0 56 37c-1.44 0-2.68.82-3.22 2h-4.69a5.15 5.15 0 0 0-5.27 5v3.15c-2.14.64-3.12 3-2 4.85A4.35 4.35 0 0 0 38 56v3c0 .55.47 1 1.05 1h3.77v3c0 2.76 2.36 5 5.27 5h2.1v2c0 .55.48 1 1.06 1h9.5c.58 0 1.05-.45 1.05-1v-2h2.15c2.9 0 5.27-2.24 5.27-5v-3h3.73c.58 0 1.05-.45 1.05-1v-3a4.34 4.34 0 0 0-2.77-3.98Zm-3.03-.35c-.78 0-1.4-.6-1.4-1.34 0-.73.62-1.33 1.4-1.33.77 0 1.4.6 1.4 1.33 0 .74-.63 1.34-1.4 1.34Zm-13.43-8h2.46A2.4 2.4 0 0 1 59.69 46v2h-7.38v-2a2.4 2.4 0 0 1 2.46-2.33ZM56 39c.78 0 1.4.6 1.4 1.33 0 .74-.62 1.34-1.4 1.34-.78 0-1.4-.6-1.4-1.34 0-.73.62-1.33 1.4-1.33ZM43.87 49c.78 0 1.4.6 1.4 1.33 0 .74-.62 1.34-1.4 1.34-.77 0-1.4-.6-1.4-1.34 0-.73.63-1.33 1.4-1.33Zm-3.76 7a2.4 2.4 0 0 1 2.46-2.33h2.53A2.4 2.4 0 0 1 47.56 56v2h-7.45v-2Zm19.58 13h-7.38v-2a2.4 2.4 0 0 1 2.46-2.33h2.46A2.4 2.4 0 0 1 59.69 67v2ZM56 62.67c-.78 0-1.4-.6-1.4-1.34 0-.73.62-1.33 1.4-1.33.78 0 1.4.6 1.4 1.33 0 .74-.62 1.34-1.4 1.34Zm11.1.33c0 1.65-1.41 3-3.15 3h-2.27a4.42 4.42 0 0 0-2.65-2.98c.3-.5.49-1.07.49-1.69A3.43 3.43 0 0 0 56 58a3.43 3.43 0 0 0-3.52 3.33c0 .62.18 1.2.49 1.69A4.42 4.42 0 0 0 50.32 66H48.1a3.09 3.09 0 0 1-3.16-3v-3h3.69c.58 0 1.05-.45 1.05-1v-3a4.34 4.34 0 0 0-2.77-3.98c1.14-1.84.18-4.22-1.97-4.87V44c0-1.65 1.42-3 3.16-3h4.47c.07.36.22.7.4 1.02A4.34 4.34 0 0 0 50.2 46v3c0 .55.47 1 1.05 1h9.5c.58 0 1.05-.45 1.05-1v-3a4.34 4.34 0 0 0-2.77-3.98c.2-.31.34-.66.41-1.02h4.5a3.09 3.09 0 0 1 3.17 3v3.16c-2.12.66-3.07 3-1.96 4.84a4.35 4.35 0 0 0-2.82 4v3c0 .55.47 1 1.05 1h3.73v3Zm4.8-5h-7.46v-2a2.4 2.4 0 0 1 2.46-2.33h2.53A2.4 2.4 0 0 1 71.89 56v2Z" fill="#fff"/><defs><radialGradient id="b" cx="0" cy="0" r="1" gradientUnits="userSpaceOnUse" gradientTransform="matrix(0 44 -40 0 56 54)"><stop stop-color="#fff"/><stop offset="1" stop-color="#fff" stop-opacity=".21"/></radialGradient><filter id="a" x="0" y=".99" width="112" height="118.02" filterUnits="userSpaceOnUse" color-interpolation-filters="sRGB"><feFlood flood-opacity="0" result="BackgroundImageFix"/><feColorMatrix in="SourceAlpha" values="0 0 0 0 0 0 0 0 0 0 0 0 0 0 0 0 0 0 127 0" result="hardAlpha"/><feOffset dy="6"/><feGaussianBlur stdDeviation="8"/><feComposite in2="hardAlpha" operator="out"/><feColorMatrix values="0 0 0 0 0 0 0 0 0 0 0 0 0 0 0 0 0 0 0.25 0"/><feBlend in2="BackgroundImageFix" result="effect1_dropShadow_370_25065"/><feBlend in="SourceGraphic" in2="effect1_dropShadow_370_25065" result="shape"/><feColorMatrix in="SourceAlpha" values="0 0 0 0 0 0 0 0 0 0 0 0 0 0 0 0 0 0 127 0" result="hardAlpha"/><feOffset dx="-1.12" dy="1.12"/><feGaussianBlur stdDeviation=".56"/><feComposite in2="hardAlpha" operator="arithmetic" k2="-1" k3="1"/><feColorMatrix values="0 0 0 0 1 0 0 0 0 1 0 0 0 0 1 0 0 0 0.558 0"/><feBlend in2="shape" result="effect2_innerShadow_370_25065"/><feColorMatrix in="SourceAlpha" values="0 0 0 0 0 0 0 0 0 0 0 0 0 0 0 0 0 0 127 0" result="hardAlpha"/><feOffset dx="1.12" dy="-1.12"/><feGaussianBlur stdDeviation=".56"/><feComposite in2="hardAlpha" operator="arithmetic" k2="-1" k3="1"/><feColorMatrix values="0 0 0 0 0.84 0 0 0 0 0.84 0 0 0 0 0.84 0 0 0 0.558 0"/><feBlend in2="effect2_innerShadow_370_25065" result="effect3_innerShadow_370_25065"/></filter></defs></svg>
